src/main/resources/img/expui/ExecutionResultSetRerun_dark.svg

<svg width="16" height="16" version="1.1" viewBox="0 0 16 16"  xmlns="http://www.w3.org/2000/svg"><rect x=".5" y="1.5" width="15" height="3" fill="#6f737a" fill-opacity=".4" /><path d="m8.998 8.5035c0-1.1777 1.2951-1.8961 2.2942-1.2725l4.002 2.4978c0.941 0.5874 0.941 1.9576 0 2.545l-4.002 2.4978c-0.9991 0.6236-2.2942-0.0947-2.2942-1.2725zm1.7647-0.42416c-0.333-0.20786-0.7647 0.03158-0.7647 0.42416v4.9956c0 0.3926 0.4317 0.632 0.7647 0.4242l4.002-2.4979c0.3137-0.1957 0.3137-0.6525 0-0.8483z" clip-rule="evenodd" fill="#57965c" fill-rule="evenodd"/><path d="m9.998 8.5035c0-0.39258 0.4317-0.63202 0.7647-0.42416l4.002 2.4978c0.3137 0.1958 0.3137 0.6526 0 0.8483l-4.002 2.4979c-0.333 0.2078-0.7647-0.0316-0.7647-0.4242z" fill="#253627"/><path d="m1.5 1c-0.82235-2e-8 -1.5 0.67765-1.5 1.5v10c-3.4828e-8 0.82235 0.67765 1.5 1.5 1.5h5.541c-0.024725-0.13407-0.038442-0.26994-0.041016-0.40625l0.0019531-0.59375h-1.002v-2h1.0078l0.00195-1h-1.0098v-2h1.0156v-0.00391c0.0030918-0.34339 0.076891-0.68247 0.2168-0.99609h-1.2324v-2c3.002-0.09502 5.9858 0 9 0v2.1234l1 0.71063v-5.334c0-0.82235-0.67765-1.5-1.5-1.5zm0 1h3.5v2h-4v-1.5c1e-7 -0.28565 0.21435-0.5 0.5-0.5zm4.5 0h4v2h-4zm5 0h3.5c0.28565 1e-7 0.5 0.21435 0.5 0.5v1.5h-4zm-10 3h4v2h-4zm0 3h4v2h-4zm0 3h4v2h-3.5c-0.28565 0-0.5-0.21435-0.5-0.5z" fill="#6f737a"/></svg>

<svg width="16" height="16" xmlns="http://www.w3.org/2000/svg"><path fill="#6f737a" fill-opacity=".4" d="M.5 1.5h15v3H.5z"/><path d="M8.998 8.504a1.5 1.5 0 0 1 2.294-1.273l4.002 2.498a1.5 1.5 0 0 1 0 2.545l-4.002 2.498a1.5 1.5 0 0 1-2.294-1.273zm1.765-.425a.5.5 0 0 0-.765.424V13.5a.5.5 0 0 0 .765.424l4.002-2.498a.5.5 0 0 0 0-.848z" clip-rule="evenodd" fill="#57965c" fill-rule="evenodd"/><path d="M9.998 8.504a.5.5 0 0 1 .765-.425l4.002 2.498a.5.5 0 0 1 0 .848l-4.002 2.498a.5.5 0 0 1-.765-.424z" fill="#253627"/><path d="M1.5 1C.678 1 0 1.678 0 2.5v10c0 .822.678 1.5 1.5 1.5h5.541A2.5 2.5 0 0 1 7 13.594L7.002 13H6v-2h1.008l.002-1H6V8h1.015v-.004A2.5 2.5 0 0 1 7.232 7H6V5c3.002-.095 5.986 0 9 0v2.123l1 .711V2.5c0-.822-.678-1.5-1.5-1.5zm0 1H5v2H1V2.5c0-.286.214-.5.5-.5zM6 2h4v2H6zm5 0h3.5c.286 0 .5.214.5.5V4h-4zM1 5h4v2H1zm0 3h4v2H1zm0 3h4v2H1.5a.488.488 0 0 1-.5-.5z" fill="#6f737a"/></svg>
